dist/images/volunteer.svg

<svg width="64" height="64" viewBox="0 0 64 64" fill="none" xmlns="http://www.w3.org/2000/svg">
<g clip-path="url(#clip0)">
<path d="M58.9421 49.276C58.6551 47.988 58.355 46.8559 58.0246 45.8144C57.8157 45.1564 57.1129 44.7925 56.455 45.0009C55.797 45.2097 55.4327 45.9124 55.6415 46.5705C55.9496 47.5414 56.231 48.6042 56.5016 49.8184C56.9122 51.6714 56.7362 52.387 56.5164 52.6609C56.3092 52.9189 55.699 53.2265 53.9677 53.2265H42.1097C42.6295 51.0193 42.0595 48.5903 40.3999 46.8699C39.2972 45.7255 37.7865 45.1316 36.1492 45.199C34.6249 45.2611 33.1531 45.8825 32.0001 46.9512C30.8504 45.8832 29.3784 45.2611 27.8522 45.199C26.2139 45.1328 24.7029 45.7256 23.6009 46.8693C21.9409 48.59 21.3707 51.0191 21.8904 53.2264H10.0326C8.30137 53.2264 7.69112 52.9188 7.48399 52.6608C7.26399 52.3869 7.08812 51.6712 7.49862 49.8185C8.80312 43.9385 11.2409 37.7896 18.8311 34.8208L24.5719 42.2911C24.8172 42.6104 25.188 42.7795 25.5639 42.7795C25.8086 42.7795 26.0554 42.7079 26.2714 42.5592L31.9985 38.6208L37.7292 42.5595C37.9451 42.7079 38.1917 42.7795 38.4364 42.7795C38.8122 42.7795 39.1831 42.6102 39.4284 42.291L45.1719 34.8169C47.0654 35.5563 48.7122 36.5229 50.137 37.7339C50.3721 37.9339 50.6599 38.0315 50.946 38.0315C51.3 38.0315 51.6517 37.882 51.899 37.5911C52.3461 37.0651 52.2821 36.2761 51.7561 35.8291C48.9749 33.4651 45.3606 31.8725 41.0011 31.0877V26.7025C43.8449 23.8295 45.4672 20.6186 45.4672 17.8324V13.4847C45.4674 6.04925 39.4205 0 31.9879 0C24.5552 0 18.5082 6.04925 18.5082 13.4847V17.8324C18.5082 20.8302 20.4299 24.1206 23.0027 26.7262V31.0871C10.1939 33.3789 6.67824 41.9748 5.05799 49.2775C4.70587 50.8664 4.44187 52.8647 5.53449 54.2259C6.60224 55.5561 8.49924 55.7266 10.0327 55.7266H23.0527C23.2205 55.9517 23.402 56.1693 23.601 56.3755C23.6114 56.3861 23.6217 56.3966 23.6324 56.4069L31.1337 63.6493C31.376 63.883 31.6889 64 32.002 64C32.3151 64 32.6282 63.883 32.8705 63.649L40.3682 56.4066C40.3789 56.3965 40.3892 56.386 40.3994 56.3755C40.5985 56.1691 40.78 55.9516 40.9477 55.7266H53.9679C55.5014 55.7266 57.3984 55.5561 58.466 54.2259C59.5587 52.8646 59.2946 50.8664 58.9421 49.276ZM31.9985 35.6205L25.5027 31.4684V28.8915C27.7014 30.5079 30.0569 31.5405 31.9879 31.5405C33.8639 31.5405 36.2229 30.5534 38.5014 28.8721V31.464L31.9985 35.6205ZM42.6452 34.0024L38.1685 39.828L34.2604 37.1418L40.0216 33.4591C40.9375 33.6063 41.8127 33.786 42.6452 34.0024ZM31.9879 2.5C37.2397 2.5 41.6414 6.2085 42.716 11.1453C40.1984 10.0473 37.9176 11.1101 35.9962 12.0059C34.6374 12.6391 33.3539 13.2375 31.9879 13.2375C30.6219 13.2375 29.339 12.6394 27.9806 12.0059C26.0592 11.1101 23.7785 10.0469 21.2596 11.1458C22.334 6.20875 26.7357 2.5 31.9879 2.5ZM21.0082 17.8324V14.2639C23.0539 12.4689 24.6199 13.1974 26.9241 14.2718C28.3976 14.9588 30.0677 15.7375 31.9879 15.7375C33.908 15.7375 35.5785 14.9589 37.0524 14.2718C39.3572 13.1975 40.9236 12.4691 42.9674 14.2636V17.8324C42.9674 20.3433 41.1456 23.1315 38.8682 25.299C38.8679 25.2994 38.8675 25.2997 38.8671 25.3001C36.5701 27.4861 33.8099 29.0404 31.9879 29.0404C28.3589 29.0404 21.0082 22.8761 21.0082 17.8324ZM23.9745 33.4586L29.7371 37.1421L25.8319 39.8278L21.3575 34.0052C22.179 33.7905 23.0502 33.6074 23.9745 33.4586ZM38.6146 54.6247L32.0019 61.0124L25.3859 54.6246C23.7951 52.9599 23.8 50.2639 25.4009 48.6046C26.7801 47.1731 29.0239 47.5889 30.3127 48.7957L30.3824 48.8609C30.8839 49.3304 31.317 49.7357 32.0017 49.7357C32.688 49.7357 33.1201 49.3295 33.6205 48.859L33.6881 48.7956C34.9775 47.5902 37.2221 47.1746 38.6004 48.6051C40.2006 50.2639 40.2054 52.96 38.6146 54.6247Z" fill="#0094FF"/>
<path d="M54.563 42.3153C55.2532 42.3153 55.813 41.7556 55.813 41.0653V41.0618C55.813 40.3716 55.2532 39.8136 54.563 39.8136C53.8727 39.8136 53.313 40.3751 53.313 41.0655C53.313 41.7558 53.8727 42.3153 54.563 42.3153Z" fill="#0094FF"/>
</g>
<defs>
<clipPath id="clip0">
<rect width="64" height="64" fill="white"/>
</clipPath>
</defs>
</svg>

<svg width="64" height="64" fill="none" xmlns="http://www.w3.org/2000/svg"><g clip-path="url(#clip0)" fill="#0094FF"><path d="M58.942 49.276a40.6 40.6 0 00-.917-3.462 1.25 1.25 0 00-2.383.757c.308.97.589 2.033.86 3.247.41 1.853.234 2.569.014 2.843-.207.258-.817.566-2.548.566H42.11c.52-2.208-.05-4.637-1.71-6.357-1.103-1.145-2.614-1.738-4.25-1.671A6.51 6.51 0 0032 46.951a6.499 6.499 0 00-4.148-1.752c-1.638-.066-3.15.527-4.251 1.67-1.66 1.721-2.23 4.15-1.71 6.357H10.032c-1.732 0-2.342-.307-2.549-.565-.22-.274-.396-.99.015-2.843 1.304-5.88 3.742-12.028 11.332-14.997l5.74 7.47a1.248 1.248 0 001.7.268l5.727-3.938 5.731 3.938a1.249 1.249 0 001.7-.269l5.743-7.473c1.893.74 3.54 1.706 4.965 2.917a1.247 1.247 0 001.762-.143 1.25 1.25 0 00-.143-1.762C48.974 33.465 45.36 31.872 41 31.088v-4.386c2.844-2.873 4.466-6.083 4.466-8.87v-4.347C45.467 6.049 39.42 0 31.987 0c-7.432 0-13.479 6.05-13.479 13.485v4.347c0 2.998 1.922 6.289 4.495 8.894v4.361C10.193 33.38 6.678 41.975 5.058 49.277c-.352 1.59-.616 3.588.476 4.949 1.068 1.33 2.965 1.5 4.499 1.5h13.02c.168.226.349.443.548.65l.031.03 7.502 7.243a1.247 1.247 0 001.736 0l7.498-7.242.031-.031c.2-.207.381-.424.549-.65h13.02c1.533 0 3.43-.17 4.498-1.5 1.093-1.361.829-3.36.476-4.95zM31.998 35.62l-6.495-4.152v-2.576c2.198 1.616 4.554 2.649 6.485 2.649 1.876 0 4.235-.988 6.513-2.669v2.592L32 35.621zm10.647-1.618l-4.477 5.826-3.908-2.686 5.762-3.683c.916.147 1.79.327 2.623.543zM31.988 2.5c5.252 0 9.653 3.708 10.728 8.645-2.518-1.098-4.798-.035-6.72.86-1.359.634-2.642 1.232-4.008 1.232s-2.649-.598-4.007-1.231c-1.922-.896-4.203-1.96-6.721-.86C22.334 6.209 26.736 2.5 31.988 2.5zm-10.98 15.332v-3.568c2.046-1.795 3.612-1.067 5.916.008 1.474.687 3.144 1.466 5.064 1.466s3.59-.78 5.064-1.466c2.305-1.075 3.872-1.803 5.915-.008v3.568c0 2.511-1.821 5.3-4.099 7.467v.001c-2.298 2.186-5.058 3.74-6.88 3.74-3.63 0-10.98-6.164-10.98-11.208zm2.966 15.627l5.763 3.683-3.905 2.686-4.474-5.823a27.856 27.856 0 012.616-.546zm14.64 21.166l-6.612 6.387-6.616-6.387c-1.59-1.665-1.586-4.361.015-6.02 1.38-1.432 3.623-1.016 4.912.19l.07.066c.5.47.934.875 1.619.875.686 0 1.118-.406 1.618-.877l.068-.063c1.29-1.206 3.534-1.621 4.912-.19 1.6 1.658 1.605 4.354.015 6.019z"/><path d="M54.563 42.315c.69 0 1.25-.56 1.25-1.25v-.003c0-.69-.56-1.248-1.25-1.248a1.252 1.252 0 000 2.501z"/></g><defs><clipPath id="clip0"><path fill="#fff" d="M0 0h64v64H0z"/></clipPath></defs></svg>
